X:1
T:Green Broom
M:6/8
L:1/8
K:F
 C| FFFA-G A| FAB c2 f| edc GA=B| c2 d c2 c| fefA-B c| dBGF-E C| FFF AGF|\
 c2d/2-e/2 f2e/2-d/2| cAc cBG| F6-| F2 z2||
